X: 31197
T: Paddy Fahey's
R: jig
M: 6/8
K: Gminor
|:DFB EGc|DFB ecA|B2 b fdB|ecA BFE|
DFB EGc|DFB ecA|B2 b fdB|ecA B3:|
|:f=ef Bdf|ecA BFD|E2 C DFB|Acf bg=e|
f=ef Bdf|ecA BFD|E2 C DFB|AcA B3:|

